!!!COM: Music21
!!!OTL: hornpipe_Flexible-Flyer
!!!OMV: hornpipe_Flexible-Flyer
**kern
*clefG2
*k[f#c#]
*D:
*M4/4
=1
12ggL
12ff#
12eeJ
=||
8ddL
8aJ
8f#L
8aJ
8dL
8f#J
8aL
8ddJ
=
8bL
8cc#J
8ddL
8bJ
8aL
8dJ
8f#L
8aJ
=
4b
8gL
8bJ
4a
8f#L
8aJ
=
12gL
12f#
12eJ
12f#L
12e
12dJ
8eL
8ff#J
12ggL
12ff#
12eeJ
!!linebreak:original
=
8ddL
8aJ
8f#L
8aJ
8dL
8f#J
8aL
8ddJ
=
8bL
8cc#J
8ddL
8bJ
8aL
8cc#J
8ddL
8eeJ
=
8ff#L
8ggJ
8aaL
8ff#J
8ggL
8eeJ
8cc#L
8eeJ
=
12ddL
12ee
12ddJ
8cc#L
8eeJ
8ddL
8eeJ
8ff#L
8eeJ
=||
8ddL
8aJ
8f#L
8aJ
8dL
8f#J
8aL
8ddJ
!!linebreak:original
=
8bL
8cc#J
8ddL
8bJ
8aL
8dJ
8f#L
8aJ
=
4b
8gL
8bJ
4a
8f#L
8aJ
=
12gL
12f#
12eJ
12f#L
12e
12dJ
8eL
8ff#J
12ggL
12ff#
12eeJ
=
8ddL
8aJ
8f#L
8aJ
8dL
8f#J
8aL
8ddJ
=
8bL
8cc#J
8ddL
8bJ
8aL
8cc#J
8ddL
8eeJ
!!linebreak:original
=
8ff#L
8ggJ
8aaL
8ff#J
8ggL
8eeJ
8cc#L
8eeJ
=
12ddL
12ee
12ddJ
8cc#L
8eeJ
8ddL
8eeJ
8ff#L
8ggJ
=||
4.aa
8ff#
8ddL
8eeJ
8ff#L
8ddJ
=
4.ee
8cc#
4.a
8aa
=
8aaL
8bbJ
8aaL
8ff#J
4.dd
8ee
!!linebreak:original
=
8eeL
8ccnJ
8cc#XL
8eeJ
4a
12ggL
12ff#
12eeJ
=
8ddL
8bJ
8bL
8bJ
8dL
8f#J
8bL
8ddJ
=
8aL
8bJ
8aL
8gJ
8f#L
8aJ
8ddL
8eeJ
=
8ff#L
8ggJ
8aaL
8ff#J
8ggL
8eeJ
8cc#L
8eeJ
=
4dd
8cc#L
8eeJ
8ddL
8eeJ
8ff#L
8ggJ
!!linebreak:original
=||
4.aa
8ff#
8ddL
8eeJ
8ff#L
8ddJ
=
4.ee
8cc#
4.a
8aa
=
8aaL
8bbJ
8aaL
8ff#J
4.dd
8ee
=
8eeL
8ccnJ
8cc#XL
8eeJ
4a
12ggL
12ff#
12eeJ
=
8ddL
8bJ
8bL
8bJ
8dL
8f#J
8bL
8ddJ
!!linebreak:original
=
8aL
8bJ
8aL
8gJ
8f#L
8aJ
8ddL
8eeJ
=
8ff#L
8ggJ
8aaL
8ff#J
8ggL
8eeJ
8cc#L
8eeJ
=
4dd
8cc#L
8eeJ
8ddL
8eeJ
8ff#L
8eeJ
=||
*-
